X: 5
T:Lakes of Sligo, The
M:2/4
L:1/8
R:Polka
K:D
A[|:FA AB/2c/2|d>e dc|BA B/2c/2d|e>d ef|!
FA AB/2c/2|de f>e|dB Af|1ef/2e/2 d>A:|2ef/2e/2 d>e|!
|:fa d>e|fa af|gb e>f|gb ba|!
fa ef/2e/2|de f>e|dB Af|1ef/2e/2 d>e:|2ef/2e/2 d>A|]!
